X: 23420
T: Les Frères Pigeon
R: reel
M: 4/4
K: Bminor
|:Bcdc B2F2|Bcdc B2F2|B3c d3c|B~f3 B~f3|
Bcdc B2F2|Bcdc B2d2|f3g f2e2|1 d2c2 B2F2:|2 d2c2 B2cB||
|:A3a a2f2|d4 c2B2|Affd f2d2|A4 ABAF|G3e e2^d2|
e4 eAce|1 b2a2 g2e2|f2e2 d2B2:|2 a2g2 e2c2|dfec d2F2||

